svgs/tarnhelm.svg

<svg width="192" height="192" viewBox="0 0 192 192" fill="none" xmlns="http://www.w3.org/2000/svg">
<path d="M36.365 109.296C41.0226 106.374 46.5212 104.686 52.411 104.686H71.7622M36.365 109.296C27.7406 114.707 22 124.349 22 135.343C22 152.274 35.6154 166 52.411 166H83.8811M36.365 109.296V100.508C36.2723 97.4319 35.0988 94.9409 33.2767 93.6097L26.5648 88.6882C24.3333 87.0526 22.7917 84.6719 22.232 81.9973C21.6723 79.3226 22.1334 76.5398 23.528 74.1759L36.365 52.3924C37.7661 50.0791 39.9739 48.3404 42.5811 47.497C45.1883 46.6537 48.0189 46.7626 50.5506 47.8037L58.2816 51.0511C60.4434 51.9285 63.3361 51.6461 66.0332 50.0426C68.7303 48.4391 70.3465 46.2002 70.6142 43.9916L71.6436 35.8329C71.9762 33.1204 73.3124 30.6216 75.3992 28.8095C77.4861 26.9974 80.1788 25.9978 82.9674 26H108.703C111.492 25.9978 114.185 26.9974 116.271 28.8095C118.358 30.6216 119.694 33.1204 120.027 35.8329L121.056 44.0218C121.334 46.2809 123.064 48.5702 125.802 50.0728C128.54 51.5755 131.361 51.8276 133.42 50.9502L141.12 47.713C143.682 46.6344 146.558 46.5152 149.204 47.3778C151.85 48.2405 154.079 50.025 155.47 52.3924L161.894 63.2841L168.472 74.0851C169.867 76.449 170.328 79.2319 169.768 81.9065C169.208 84.5811 167.667 86.9618 165.435 88.5974L158.692 93.5391C156.809 94.9207 155.645 97.5226 155.686 100.599V109.328M155.686 109.328C151.018 106.386 145.5 104.686 139.589 104.686H120.476M155.686 109.328C164.282 114.745 170 124.371 170 135.343C170 152.274 156.385 166 139.589 166H108.238M71.7622 104.686C71.5311 103.354 71.4127 101.998 71.4127 100.629C71.4127 95.8417 72.8617 91.1621 75.5765 87.1818C78.2913 83.2015 82.1499 80.0992 86.6644 78.2673C91.1789 76.4353 96.1465 75.956 100.939 76.8899C105.732 77.8238 110.134 80.129 113.589 83.514C117.044 86.899 119.397 91.2117 120.351 95.9068C120.941 98.8162 120.978 101.791 120.476 104.686M71.7622 104.686H83.9406M120.476 104.686H108.297M62.0866 135.343H130.032" stroke="black" stroke-width="12" stroke-linecap="round"/>
</svg>

<svg xmlns="http://www.w3.org/2000/svg" width="192" height="192" fill="none" viewBox="0 0 192 192"><path stroke="#000" stroke-linecap="round" stroke-width="12" d="M36.365 109.296a30.1 30.1 0 0 1 16.046-4.61h19.351m-35.397 4.61A30.69 30.69 0 0 0 22 135.343C22 152.274 35.615 166 52.411 166h31.47m-47.516-56.704v-8.788c-.093-3.076-1.266-5.567-3.088-6.898l-6.712-4.922a11.13 11.13 0 0 1-4.333-6.69 10.96 10.96 0 0 1 1.296-7.822l12.837-21.784a11.33 11.33 0 0 1 6.216-4.895 11.6 11.6 0 0 1 7.97.307l7.73 3.247c2.162.877 5.055.595 7.752-1.008 2.697-1.604 4.314-3.843 4.581-6.051l1.03-8.16a11.1 11.1 0 0 1 3.755-7.023A11.53 11.53 0 0 1 82.967 26h25.736a11.53 11.53 0 0 1 7.568 2.81 11.1 11.1 0 0 1 3.756 7.023l1.029 8.189c.278 2.259 2.008 4.548 4.746 6.05 2.738 1.503 5.559 1.756 7.618.878l7.7-3.237a11.6 11.6 0 0 1 8.084-.335 11.33 11.33 0 0 1 6.266 5.014l6.424 10.892 6.578 10.801a10.96 10.96 0 0 1 1.296 7.822 11.13 11.13 0 0 1-4.333 6.69l-6.743 4.942c-1.883 1.382-3.047 3.984-3.006 7.06v8.729m0 0a30.1 30.1 0 0 0-16.097-4.642h-19.113m35.21 4.642A30.7 30.7 0 0 1 170 135.343C170 152.274 156.385 166 139.589 166h-31.351m-36.476-61.314a23.7 23.7 0 0 1-.35-4.057 23.86 23.86 0 0 1 4.164-13.447 24.6 24.6 0 0 1 11.088-8.915 25.2 25.2 0 0 1 14.275-1.377 24.87 24.87 0 0 1 12.65 6.624 24.06 24.06 0 0 1 6.762 12.393c.59 2.91.627 5.884.125 8.779m-48.714 0h12.179m36.535 0h-12.179m-46.21 30.657h67.945"/></svg>
